public/app/img/products/appstore.svg

<svg width="26px" height="32px" viewBox="0 0 26 32" version="1.1" xmlns="http://www.w3.org/2000/svg" xmlns:xlink="http://www.w3.org/1999/xlink">
    <g id="Symbols" stroke="none" stroke-width="1" fill="none" fill-rule="evenodd">
        <g id="icon/apple-white" fill-rule="nonzero" fill="#FFFFFF">
            <path d="M21.5057573,16.8008364 C21.5504223,21.5866428 25.7037398,23.1790314 25.75,23.1996358 C25.714906,23.3119631 25.086405,25.4690455 23.5615457,27.6972463 C22.2433952,29.6238252 20.8753952,31.5433587 18.7204398,31.5831053 C16.6028381,31.6220542 15.9220949,30.3274326 13.5012761,30.3274326 C11.080989,30.3274326 10.3247406,31.5432257 8.31999794,31.6220542 C6.23988298,31.7008827 4.65586907,29.538616 3.32695105,27.6192154 C0.611023868,23.6932112 -1.46430554,16.5248702 1.32247423,11.6860241 C2.70669182,9.28301811 5.18068335,7.76134915 7.86616917,7.72240017 C9.90866446,7.68345118 11.8367056,9.09664789 13.0853328,9.09664789 C14.3334284,9.09664789 16.6763493,7.39724927 19.1394404,7.64676204 C20.1704585,7.68969897 23.0645142,8.063237 24.9235637,10.7836839 C24.7737497,10.8764702 21.4695999,12.7997257 21.5057573,16.8008364 M17.5260486,5.04914405 C18.6303121,3.71238307 19.3735331,1.85160539 19.1710782,0 C17.5789554,0.0639401388 15.6543705,1.06066189 14.5124874,2.39675822 C13.4893122,3.57985018 12.5930868,5.47359491 12.8350225,7.28851116 C14.6091287,7.42569665 16.4216522,6.38670263 17.5260486,5.04914405" id="Shape"></path>
        </g>
    </g>
</svg>

<svg width="26" height="32" viewBox="0 0 26 32" xmlns="http://www.w3.org/2000/svg"><path d="M21.50576 16.80084c.04466 4.7858 4.19798 6.3782 4.24424 6.3988-.0351.11232-.6636 2.2694-2.18845 4.4976-1.31815 1.9266-2.68615 3.84612-4.8411 3.88587-2.1176.03895-2.79836-1.25567-5.21917-1.25567-2.4203 0-3.17654 1.2158-5.18128 1.29462-2.08012.07883-3.66413-2.08343-4.99305-4.00283-2.71593-3.926-4.79126-11.09435-2.00448-15.9332 1.38422-2.403 3.8582-3.92467 6.5437-3.96362 2.0425-.03895 3.97054 1.37425 5.21916 1.37425 1.2481 0 3.59102-1.6994 6.0541-1.4499 1.03103.04295 3.92508.4165 5.78413 3.13693-.1498.0928-3.45396 2.01605-3.4178 6.01716m-3.9797-11.7517C18.6303 3.71238 19.37352 1.8516 19.17107 0c-1.59212.06394-3.5167 1.06066-4.6586 2.39676-1.02317 1.1831-1.9194 3.07683-1.67746 4.89175 1.7741.1372 3.58663-.9018 4.69103-2.23936" fill-rule="nonzero" fill="#FFF"/></svg>
